X:1
T:Friend, 87.87 D
T:Friend, 87.87 D
T:George Coles Stebbins, 1878
T:Public Domain Courtesy of the Cyber Hymnal™
C:George Coles Stebbins, 1878
Z:Public Domain
Z:Courtesy of the Cyber Hymnal™
%%score ( 1 2 ) ( 3 4 )
L:1/8
Q:1/4=100
M:3/4
K:Ab
V:1 treble 
V:2 treble 
V:3 bass 
V:4 bass 
V:1
 [CE]2 | [CE]>[Ec] [Ec]2 [Fd]2 | [Ec]>[DB] [DB]2 [DA]2 | [DG]3 [DF] [DE]>[DF] | [CE]2 [CA]2 [CE]2 | %5
 [CE]>[Ec] [Ec]2 ([DB][Ec]) | [Fd]>[DF] [DF]2 [DA]2 | [CE]3 [CF] [DA]>[DG] | [DG]2 [CA]2 E2 | %9
 [Ed]>[Ec] [EB]2 E2 | [Ec]>[DB] [CA]2 [EG]2 | [DF]3 [DG] [=DA]>[Dc] | [Ec]2 [EB]2 [DE]2 | %13
 [CE]>[Ec] [Ec]2 ([DB][Ec]) | [Fd]>[DF] [DF]2 [DA]2 | [CE]3 [CF] [DA]>[DG] | [DG]2 [CA]2 |] %17
V:2
 x2 | x6 | x6 | x6 | x6 | x6 | x6 | x6 | x4 E2 | x4 E2 | x6 | x6 | x6 | x6 | x6 | x6 | x4 |] %17
V:3
 [A,,A,]2 | [A,,A,]>[A,,A,] [A,,A,]2 [A,,A,]2 | [E,A,]>[E,G,] [E,G,]2 [E,F,]2 | %3
 [E,B,]3 [E,A,] [E,G,]>[E,G,] | [A,,A,]2 [A,,E,]2 [A,,A,]2 | [A,,A,]>[A,,A,] [A,,A,]2 [A,,A,]2 | %6
 [D,A,]>[D,A,] [D,A,]2 [D,F,]2 | [E,A,]3 [E,A,] [E,B,]>[E,B,] | [E,B,]2 [A,,A,]2 E,2 | %9
 [E,B,]>[E,A,] [E,G,]2 E,2 | [A,,A,]>[A,,A,] [A,,A,]2 [C,A,]2 | [D,A,]3 [D,G,] [B,,F,]>[B,,A,] | %12
 [E,A,]2 [E,G,]2 [E,G,]2 | [A,,A,]>[A,,A,] [A,,A,]2 [A,,A,]2 | [D,A,]>[D,A,] [D,A,]2 [D,F,]2 | %15
 [E,A,]3 [E,A,] [E,B,]>[E,B,] | [E,B,]2 [A,,A,]2 |] %17
V:4
 x2 | x6 | x6 | x6 | x6 | x6 | x6 | x6 | x4 E,2 | x4 E,2 | x6 | x6 | x6 | x6 | x6 | x6 | x4 |] %17

